X: 28693
T: My Bonnie Blue Eyed Lassie
R: jig
M: 6/8
K: Cmajor
A|GEG AGE|GAB cde|fec dcd|edc G2A|
GEG AGE|GAB cde|fed gec|ded c2e|
|:fed agf|efg G2e|fec dcd|edc G2A|
GEG AGE|GAB cde|fed gec|1 ded c2e:|2 ded c2A||

